svg/fluentui-system-icons/ic_fluent_shopping_bag_percent_24_regular.svg

<svg width="24" height="24" viewBox="0 0 24 24" fill="none" xmlns="http://www.w3.org/2000/svg">
<path d="M7 5V7H5.5C4.67157 7 4 7.67157 4 8.5V18C4 20.2091 5.79086 22 8 22H12.1683C11.9439 21.5266 11.9439 20.9734 12.1683 20.5H8C6.61929 20.5 5.5 19.3807 5.5 18V8.5H13.01V11.3321C13.4621 11.1191 13.9671 11 14.5 11L14.51 11V8.5H18.5V14.0251L20 12.5251V8.5C20 7.67157 19.3284 7 18.5 7H17V5C17 3.34315 15.6569 2 14 2C13.2317 2 12.5308 2.28885 12 2.7639C11.4692 2.28886 10.7684 2 10 2C8.34315 2 7 3.34315 7 5ZM11.5 5V7H8.5V5C8.5 4.17157 9.17157 3.5 10 3.5C10.8284 3.5 11.5 4.17157 11.5 5ZM15.5 7H13V5C13 4.66563 12.9453 4.34403 12.8444 4.04368C13.1195 3.71156 13.535 3.5 14 3.5C14.8284 3.5 15.5 4.17157 15.5 5V7ZM14.5 17C15.8807 17 17 15.8807 17 14.5C17 13.1193 15.8807 12 14.5 12C13.1193 12 12 13.1193 12 14.5C12 15.8807 13.1193 17 14.5 17ZM14.5 13.5C15.0523 13.5 15.5 13.9477 15.5 14.5C15.5 15.0523 15.0523 15.5 14.5 15.5C13.9477 15.5 13.5 15.0523 13.5 14.5C13.5 13.9477 13.9477 13.5 14.5 13.5ZM20.5 23C21.8807 23 23 21.8807 23 20.5C23 19.1193 21.8807 18 20.5 18C19.1193 18 18 19.1193 18 20.5C18 21.8807 19.1193 23 20.5 23ZM20.5 19.5C21.0523 19.5 21.5 19.9477 21.5 20.5C21.5 21.0523 21.0523 21.5 20.5 21.5C19.9477 21.5 19.5 21.0523 19.5 20.5C19.5 19.9477 19.9477 19.5 20.5 19.5ZM21.7803 14.2803C22.0732 13.9874 22.0732 13.5126 21.7803 13.2197C21.4874 12.9268 21.0126 12.9268 20.7197 13.2197L13.2197 20.7197C12.9268 21.0126 12.9268 21.4874 13.2197 21.7803C13.5126 22.0732 13.9874 22.0732 14.2803 21.7803L21.7803 14.2803Z" fill="#212121"/>
</svg>

<svg xmlns="http://www.w3.org/2000/svg" width="24" height="24"><path d="M7 5v2H5.5A1.5 1.5 0 0 0 4 8.5V18a4 4 0 0 0 4 4h4.168a1.755 1.755 0 0 1 0-1.5H8A2.5 2.5 0 0 1 5.5 18V8.5h7.51v2.832A3.487 3.487 0 0 1 14.5 11h.01V8.5h3.99v5.525l1.5-1.5V8.5A1.5 1.5 0 0 0 18.5 7H17V5a3 3 0 0 0-5-2.236A3 3 0 0 0 7 5Zm4.5 0v2h-3V5a1.5 1.5 0 1 1 3 0Zm4 2H13V5c0-.334-.055-.656-.156-.956A1.5 1.5 0 0 1 15.5 5v2Zm-1 10a2.5 2.5 0 1 0 0-5 2.5 2.5 0 0 0 0 5Zm0-3.5a1 1 0 1 1 0 2 1 1 0 0 1 0-2Zm6 9.5a2.5 2.5 0 1 0 0-5 2.5 2.5 0 0 0 0 5Zm0-3.5a1 1 0 1 1 0 2 1 1 0 0 1 0-2Zm1.28-5.22a.75.75 0 1 0-1.06-1.06l-7.5 7.5a.75.75 0 1 0 1.06 1.06l7.5-7.5Z"/></svg>
